symbols/web/room_service/materialsymbolsrounded/room_service_wght700fill1_40px.svg

<svg xmlns="http://www.w3.org/2000/svg" height="40" width="40"><path d="M4.333 34.458q-.916 0-1.541-.646-.625-.645-.625-1.562t.625-1.562q.625-.646 1.541-.646h31.334q.916 0 1.562.646.646.645.646 1.562t-.646 1.562q-.646.646-1.562.646Zm-.791-6.625v-2.208q0-6.208 3.52-10.437 3.521-4.23 8.98-5.688v-.708q0-1.625 1.146-2.771Q18.333 4.875 20 4.875q1.667 0 2.812 1.146 1.146 1.146 1.146 2.771V9.5q5.5 1.458 9 5.688 3.5 4.229 3.5 10.437v2.208Z"/></svg>

<svg xmlns="http://www.w3.org/2000/svg" height="40" width="40"><path d="M4.333 34.458Q3.417 34.458 2.792 33.812Q2.167 33.167 2.167 32.25Q2.167 31.333 2.792 30.688Q3.417 30.042 4.333 30.042H35.667Q36.583 30.042 37.229 30.688Q37.875 31.333 37.875 32.25Q37.875 33.167 37.229 33.812Q36.583 34.458 35.667 34.458ZM3.542 27.833V25.625Q3.542 19.417 7.062 15.188Q10.583 10.958 16.042 9.5V8.792Q16.042 7.167 17.188 6.021Q18.333 4.875 20 4.875Q21.667 4.875 22.812 6.021Q23.958 7.167 23.958 8.792V9.5Q29.458 10.958 32.958 15.188Q36.458 19.417 36.458 25.625V27.833Z"/></svg>
